X: 11162
P: Copyright.
M: C
L: 1/16
K: D
|:\
f3ed3f g3a bagf |
e3dc3e f3g agfe |\
d3cB3d e3f gfed | c3BA3c ed3 d4 ::\
d3AF2A2 GB3FA3 | B(d3e3)f gfed dcBA |
d3AF2A2 GB3FA3 | B3e dcBA fd3d4 ::\
fa3fa3 bagf a2d2 | Be3Be3 g3ec2A2 |\


